X: 68
T:The Pinch of Snuff
% Nottingham Music Database
S:AA, via EF
M:4/4
L:1/4
K:D
"D"FD/2F/2 FD/2F/2|"D"FD/2F/2 "A7"E/2F/2G/2E/2|"D"FD/2F/2 FD/2F/2|\
"G"GB/2G/2 "A7"E/2F/2G/2E/2:|
"D"D/2F/2A/2F/2 B/2F/2A/2F/2|"D"D/2F/2A/2F/2 "A7"E/2F/2G/2E/2|\
"D"D/2F/2A/2F/2 B/2F/2A/2F/2|"G"GB/2G/2 "A7"E/2F/2G/2E/2:|
K:G
"D"FD/2F/2 FD/2F/2|"D"FD/2F/2 "A7"E/2F/2G/2E/2|"D"FD/2F/2 FD/2F/2|\
"G"GB/2G/2 "A7"E/2F/2G/2E/2:|
"D"D/2F/2A/2F/2 B/2F/2A/2F/2|"D"D/2F/2A/2F/2 "A7"E/2F/2G/2E/2|\
"D"D/2F/2A/2F/2 B/2F/2A/2F/2|"G"GB/2G/2 "A7"E/2F/2G/2E/2:|
K:A
"D"FD/2F/2 FD/2F/2|"D"FD/2F/2 "A7"E/2F/2G/2E/2|"D"FD/2F/2 FD/2F/2|\
"G"GB/2G/2 "A7"E/2F/2G/2E/2:|
"D"D/2F/2A/2F/2 B/2F/2A/2F/2|"D"D/2F/2A/2F/2 "A7"E/2F/2G/2E/2|\
"D"D/2F/2A/2F/2 B/2F/2A/2F/2|"G"GB/2G/2 "A7"E/2F/2G/2E/2:|
K:D
"D"FD/2F/2 FD/2F/2|"D"FD/2F/2 "A7"E/2F/2G/2E/2|"D"FD/2F/2 FD/2F/2|\
"G"GB/2G/2 "A7"E/2F/2G/2E/2:|
"D"D/2F/2A/2F/2 B/2F/2A/2F/2|"D"D/2F/2A/2F/2 "A7"E/2F/2G/2E/2|\
"D"D/2F/2A/2F/2 B/2F/2A/2F/2|"G"GB/2G/2 "A7"E/2F/2G/2E/2:|<end>
<start>
